X: 7147
T: Chuck Norris', The
R: reel
M: 4/4
K: Dmajor
|:dB|AF~F2 AFEF|D2FD ADBD|ed~d2 edBA|BAFA BAFA|
DF~F2 AFEF|DF~F2 ADBD|ed~d2 edBA|FAfe d2:|
|:ef|~g3e ~f3e|dBAB dBAB|gz2ef3e|dBAB eBfB|
~g3e ~f3e|dBAB dBAB|gz2ef3e|dBfe d2:|

